app/dist/common/images/wisetech-global.svg

<svg height="18" width="18" xmlns="http://www.w3.org/2000/svg"><path d="m0 0h18v18h-18z" fill="#1d1765"/><path d="m5 10v2h-1v-2zm3 4v-3h1v3zm6-2v-2h-1v2zm-9-3h-1v-4h1zm2 0v-4h-1v4zm2-4v4h-1v-4zm1 5v4h1v-4zm3-5v4h-1v-4z" fill="#fff"/></svg>

<!-- by TradingView --><svg xmlns="http://www.w3.org/2000/svg" width="18" height="18"><path fill="#1D1765" d="M0 0h18v18H0z"/><path d="M5 10v2H4v-2h1zm3 4v-3h1v3H8zm6-2v-2h-1v2h1zM5 9H4V5h1v4zm2 0V5H6v4h1zm2-4v4H8V5h1zm1 5v4h1v-4h-1zm3-5v4h-1V5h1z" fill="#fff"/></svg>
